X:1
T:Come, Come Away!
T:Come, Come Away!
T:George Coles Stebbins
T:Frances Jane (Fanny) Crosby, 1890
T:Public Domain Courtesy of the Cyber Hymnal™
C:George Coles Stebbins
Z:Public Domain
Z:Courtesy of the Cyber Hymnal™
%%score ( 1 2 ) ( 3 4 )
L:1/8
Q:1/4=115
M:6/8
K:Bb
V:1 treble 
V:2 treble 
V:3 bass 
V:4 bass 
V:1
 [DF] | [DF][DF][DF] [DF]2 [DF] | [EG]3 [DF]2 z | (B2 A) [EG]2 [EA] | [DB]3- [DB]2 [DB] | %5
w: 1.~Oh,|list to the watch- man|cry- ing:|Come, * come a-|way! * The|
w: 2.~The|Spir- it of God is|plead- ing:|Come, * come a-|way! * The|
w: 3.~The|mer- cy of God is|call- ing:|Come, * come a-|way! * How|
w: 4.~The|an- gels of God en-|treat you:|Come, * come a-|way! * The|
 [Fc][Fc][Fc] [Fc]2 [Fc] | [Fd]3 [Fc]3 | [Fd]3 (BA)[_EG] | F3- F2 z || %9
w: ar- rows of death are|fly- ing:|Come, come * to-|day! *|
w: Sav- ior is in- ter-|ced- ing:|Come, come * to-|day! *|
w: sweet- ly the words are|fall- ing:|Come, come * to-|day! *|
w: Fa- ther Him- self will|meet you:|Come, come * to-|day! *|
"^Refrain" [Fd]3 ([Ec][DB])[Ec] | ([Fd]3 [DB]2) z | [EB]3 (cB)[EG] | [DF]3- [DF]2 z | %13
w: ||||
w: Come, come * a-|way! *|Come, come * a-|way! *|
w: ||||
w: ||||
 [EA][EA][EA] [DB]2 [GB] | ([Gc]2 [Ed]) [Ee]3 | [Fd]3 ([Ec][DB])[Ec] | [DB]3- [DB]2 |] %17
w: ||||
w: Je- sus is gent- ly|call- * ing:|Come, come * to-|day! *|
w: ||||
w: ||||
V:2
 x | x6 | x6 | F3 x3 | x6 | x6 | x6 | x3 =E2 x | F3- F2 x || x6 | x6 | x3 E2 x | x6 | x6 | x6 | %15
 x6 | x5 |] %17
V:3
 [B,,B,] | [B,,B,][B,,B,][B,,B,] [B,,B,]2 [B,,B,] | [B,,B,]3 [B,,B,]2 z | [F,D]3 [F,C]2 [F,C] | %4
 [B,,B,]3- [B,,B,]2 [B,,B,] | [F,A,][F,A,][F,A,] [F,A,]2 [F,A,] | [F,B,]3 [F,A,]3 | %7
 [C,A,]3 (G,C)[C,B,] | [F,A,]3- [F,A,]2 z || [B,,B,]3 (A,B,)[F,A,] | ([B,,B,]3 [B,,F,]2) z | %11
 [E,G,]3 [E,G,]2 [E,B,] | [B,,B,]3- [B,,B,]2 z | [F,C][F,C][F,C] [G,B,]2 [G,D] | %14
 ([E,C]2 [D,=B,]) [C,C]3 | [F,B,]3 (A,B,)[F,A,] | [B,,B,]3- [B,,B,]2 |] %17
V:4
 x | x6 | x6 | x6 | x6 | x6 | x6 | x3 C,2 x | x6 || x3 F,2 x | x6 | x6 | x6 | x6 | x6 | x3 F,2 x | %16
 x5 |] %17

